; generated by PrusaSlicer 2.9.2 on 2026-01-06 at 08:40:16 UTC


;
;
; 

; external perimeters extrusion width = 0.25mm
; perimeters extrusion width = 0.25mm
; infill extrusion width = 0.25mm
; solid infill extrusion width = 0.25mm
; top infill extrusion width = 0.25mm
; first layer extrusion width = 0.30mm

M73 P0 R342
M73 Q0 S342
M201 X1000 Y1000 Z200 E5000 ; sets maximum accelerations, mm/sec^2
M203 X200 Y200 Z12 E120 ; sets maximum feedrates, mm / sec
M204 S1250 T1250 ; sets acceleration (S) and retract acceleration (R), mm/sec^2
M205 X8.00 Y8.00 Z0.40 E4.50 ; sets the jerk limits, mm/sec
M205 S0 T0 ; sets the minimum extruding and travel feed rate, mm/sec

; printing object insert_test_1 id:0 copy 0
; stop printing object insert_test_1 id:0 copy 0

;TYPE:Custom
M862.3 P "MK3" ; printer model check
M862.1 P0.25 ; nozzle diameter check
M115 U3.14.1 ; tell printer latest fw version
G90 ; use absolute coordinates
M83 ; extruder relative mode
M104 S255 ; set extruder temp
M140 S100 ; set bed temp
M190 S100 ; wait for bed temp
M109 S255 ; wait for extruder temp
G28 W ; home all without mesh bed level
G80 X80.6396 Y64.1703 W78.9115 H78.9128 ; mesh bed levelling
G1 Z0.2 F720
G1 Y-3 F1000 ; go outside print area
G92 E0
G1 X60 E8 F700 ; intro line
G1 X100 E12.5 F700 ; intro line
M73 P0 R341
G92 E0
M221 S95

; Don't change E value below. Excessive value can damage the printer.
M907 E430 ; set extruder motor current
G21 ; set units to millimeters
G90 ; use absolute coordinates
M83 ; use relative distances for extrusion

M900 K0.04 ; Filament gcode LA 1.5
M900 K20 ; Filament gcode LA 1.0




M107
;LAYER_CHANGE
;Z:0.2
;HEIGHT:0.2
G1 E-.8 F2100
G1 Z.35 F720
G1 X89.888 Y78.444 F10800
G1 Z.2 F720
G1 E.8 F2100
M204 S500
;TYPE:Skirt/Brim
;WIDTH:0.3
G1 F1200
G1 X92.385 Y75.719 E.07901
G1 X95.113 Y73.253 E.07861
G1 X97.219 Y71.637 E.05674
G1 X98.726 Y70.611 E.03897
G1 X101.919 Y68.751 E.07899
G1 X105.227 Y67.218 E.07794
G1 X107.747 Y66.288 E.05742
G1 X109.491 Y65.755 E.03898
G1 X113.043 Y64.936 E.07792
G1 X116.657 Y64.449 E.07795
G1 X120.349 Y64.299 E.07899
G1 X124.012 Y64.494 E.07841
G1 X126.652 Y64.849 E.05694
G1 X128.442 Y65.194 E.03897
G1 X132.013 Y66.147 E.07901
G1 X135.432 Y67.412 E.07793
G1 X137.115 Y68.171 E.03947
G1 X139.456 Y69.393 E.05645
G1 X142.561 Y71.346 E.07841
G1 X145.466 Y73.575 E.07827
G1 X148.164 Y76.078 E.07867
G1 X150.588 Y78.788 E.07772
G1 X152.763 Y81.727 E.07816
G1 X153.743 Y83.264 E.03897
G1 X155.05 Y85.6 E.05722
G1 X156.573 Y88.923 E.07814
G1 X157.778 Y92.364 E.07794
G1 X158.668 Y95.95 E.07898
G1 X159.214 Y99.556 E.07796
G1 X159.4 Y102.235 E.0574
G1 X159.423 Y104.058 E.03897
G1 X159.208 Y107.747 E.07899
G1 X158.659 Y111.351 E.07793
G1 X157.778 Y114.889 E.07794
G1 X157.215 Y116.624 E.03899
G1 X156.242 Y119.127 E.05741
G1 X154.651 Y122.408 E.07795
G1 X152.736 Y125.568 E.07898
G1 X151.683 Y127.057 E.03898
G1 X150.011 Y129.158 E.0574
G1 X147.518 Y131.819 E.07795
G1 X144.789 Y134.237 E.07794
G1 X141.807 Y136.42 E.079
G1 X139.518 Y137.825 E.05741
G1 X137.912 Y138.688 E.03897
G1 X134.589 Y140.188 E.07793
G1 X131.141 Y141.373 E.07794
G1 X127.549 Y142.243 E.079
G1 X123.941 Y142.767 E.07793
G1 X121.261 Y142.938 E.0574
G1 X119.437 Y142.95 E.03899
G1 X115.799 Y142.72 E.07792
G1 X112.148 Y142.144 E.07901
G1 X110.371 Y141.734 E.03898
G1 X107.793 Y140.981 E.05741
G1 X104.387 Y139.681 E.07793
G1 X101.116 Y138.072 E.07792
G1 X97.966 Y136.138 E.07901
G1 X95.051 Y133.949 E.07793
G1 X93.672 Y132.755 E.03899
G1 X91.746 Y130.884 E.0574
G1 X89.343 Y128.141 E.07795
G1 X87.178 Y125.147 E.07898
G1 X85.327 Y122.006 E.07793
G1 X84.154 Y119.59 E.05741
G1 X83.452 Y117.907 E.03898
G1 X82.287 Y114.452 E.07794
G1 X81.447 Y110.904 E.07794
G1 X80.939 Y107.294 E.07793
G1 X80.768 Y103.602 E.07901
G1 X80.942 Y99.938 E.07841
G1 X81.281 Y97.296 E.05694
G1 X81.616 Y95.504 E.03897
G1 X82.544 Y91.943 E.07866
G1 X83.793 Y88.501 E.07827
G1 X85.35 Y85.204 E.07794
G1 X86.246 Y83.606 E.03916
G1 X87.686 Y81.349 E.05723
G1 X89.866 Y78.473 E.07714
M204 S1000
;WIPE_START
G1 F8640
G1 X89.888 Y78.444 E-.0084
G1 X92.204 Y75.917 E-.7916
;WIPE_END
G1 Z.35 F720
; printing object insert_test_1 id:0 copy 0
G1 X155.742 Y95.654 F10800
G1 Z.2 F720
G1 E.8 F2100
M204 S500
;TYPE:Perimeter
;WIDTH:0.299999
G1 F1200
G1 X155.925 Y96.473 E.01794
G1 X156.218 Y98.142 E.03622
G1 X156.434 Y99.822 E.03621
G1 X156.591 Y101.933 E.04525
G1 X156.615 Y102.772 E.01794
G1 X156.63 Y104.05 E.02732
G1 X156.571 Y105.743 E.03621
G1 X156.434 Y107.432 E.03622
G1 X156.218 Y109.112 E.03621
G1 X155.924 Y110.784 E.03629
G1 X155.75 Y111.605 E.01794
G1 X155.341 Y113.253 E.0363
G1 X154.857 Y114.877 E.03622
G1 X154.298 Y116.476 E.03621
G1 X153.666 Y118.047 E.0362
G1 X152.961 Y119.588 E.03622
G1 X152.186 Y121.094 E.03621
G1 X151.342 Y122.563 E.03622
G1 X150.431 Y123.991 E.03621
G1 X149.454 Y125.375 E.03621
G1 X148.412 Y126.716 E.0363
G1 X147.874 Y127.36 E.01794
G1 X146.741 Y128.625 E.0363
G1 X145.554 Y129.833 E.0362
G1 X144.312 Y130.985 E.03621
G1 X143.018 Y132.078 E.03621
G1 X141.674 Y133.11 E.03622
G1 X140.284 Y134.078 E.03621
G1 X138.848 Y134.983 E.03628
G1 X138.123 Y135.406 E.01794
G1 X136.627 Y136.209 E.03629
G1 X135.099 Y136.94 E.03621
G1 X133.538 Y137.6 E.03623
G1 X131.949 Y138.186 E.0362
G1 X130.331 Y138.7 E.03629
G1 X129.522 Y138.926 E.01796
G1 X127.872 Y139.325 E.03629
G1 X126.209 Y139.647 E.03621
G1 X124.533 Y139.892 E.03621
G1 X122.847 Y140.059 E.03622
G1 X121.155 Y140.147 E.03622
G1 X119.461 Y140.157 E.03621
G1 X117.769 Y140.088 E.0362
G1 X116.081 Y139.941 E.03622
G1 X114.402 Y139.716 E.03621
G1 X112.735 Y139.413 E.03622
G1 X111.084 Y139.033 E.03621
G1 X109.449 Y138.577 E.03628
G1 X108.649 Y138.323 E.01794
G1 X107.049 Y137.753 E.03631
G1 X105.482 Y137.112 E.03619
G1 X103.945 Y136.399 E.03622
G1 X102.443 Y135.615 E.03622
G1 X100.98 Y134.762 E.0362
G1 X99.557 Y133.842 E.03622
G1 X98.178 Y132.858 E.03621
G1 X96.847 Y131.81 E.03621
G1 X95.566 Y130.702 E.0362
G1 X94.334 Y129.533 E.0363
G1 X93.746 Y128.935 E.01793
G1 X92.598 Y127.683 E.03631
G1 X91.513 Y126.383 E.0362
G1 X90.489 Y125.033 E.03622
G1 X89.528 Y123.638 E.03621
G1 X88.634 Y122.199 E.03621
G1 X87.807 Y120.721 E.0362
G1 X87.047 Y119.202 E.03631
G1 X86.698 Y118.439 E.01794
G1 X86.046 Y116.871 E.0363
G1 X85.469 Y115.279 E.0362
G1 X84.966 Y113.661 E.03622
G1 X84.538 Y112.022 E.03621
G1 X84.188 Y110.365 E.0362
G1 X83.914 Y108.693 E.03622
G1 X83.718 Y107.01 E.03622
G1 X83.6 Y105.317 E.03628
G1 X83.571 Y104.469 E.01814
G1 X83.571 Y102.789 E.03591
G1 X83.649 Y101.087 E.03642
G1 X83.806 Y99.401 E.0362
G1 X84.041 Y97.723 E.03622
G1 X84.353 Y96.058 E.03621
G1 X84.743 Y94.409 E.03622
G1 X85.208 Y92.781 E.03619
G1 X85.748 Y91.175 E.03622
G1 X86.362 Y89.596 E.03622
G1 X87.049 Y88.048 E.0362
G1 X87.807 Y86.532 E.03623
G1 X88.634 Y85.054 E.0362
G1 X89.526 Y83.62 E.0361
G1 X89.998 Y82.915 E.01814
G1 X90.993 Y81.54 E.03628
G1 X92.048 Y80.214 E.03622
G1 X93.164 Y78.939 E.03622
G1 X94.337 Y77.717 E.03621
G1 X95.566 Y76.551 E.03621
G1 X96.847 Y75.443 E.0362
G1 X98.178 Y74.396 E.0362
G1 X99.557 Y73.411 E.03623
G1 X100.98 Y72.492 E.03621
G1 X102.451 Y71.635 E.03639
G1 X103.949 Y70.853 E.03612
G1 X104.706 Y70.491 E.01794
G1 X106.262 Y69.812 E.03629
G1 X107.844 Y69.207 E.03621
G1 X109.461 Y68.673 E.0364
G1 X111.088 Y68.219 E.03611
G1 X111.904 Y68.021 E.01795
G1 X113.567 Y67.679 E.03629
G1 X115.24 Y67.415 E.0362
G1 X116.924 Y67.229 E.03622
G1 X118.615 Y67.121 E.03622
G1 X120.317 Y67.092 E.03639
G1 X122.005 Y67.141 E.0361
G1 X122.843 Y67.194 E.01795
G1 X124.533 Y67.361 E.0363
G1 X126.209 Y67.606 E.03621
G1 X127.872 Y67.928 E.03621
G1 X129.519 Y68.327 E.03623
G1 X131.145 Y68.802 E.03621
M73 Q0 S341
G1 X132.747 Y69.351 E.0362
G1 X134.322 Y69.974 E.03621
G1 X135.867 Y70.67 E.03622
G1 X137.378 Y71.436 E.03621
G1 X138.851 Y72.272 E.0362
G1 X140.284 Y73.175 E.03621
G1 X141.677 Y74.146 E.0363
G1 X142.349 Y74.649 E.01794
G1 X143.664 Y75.709 E.03611
G1 X144.94 Y76.837 E.03641
G1 X146.155 Y78.018 E.03622
G1 X147.314 Y79.253 E.0362
G1 X148.414 Y80.541 E.03621
G1 X149.454 Y81.878 E.03621
G1 X150.435 Y83.27 E.0364
G1 X151.344 Y84.694 E.03611
G1 X151.771 Y85.417 E.01795
G1 X152.578 Y86.9 E.03609
G1 X153.323 Y88.432 E.03642
G1 X153.991 Y89.988 E.0362
G1 X154.587 Y91.574 E.03622
G1 X155.108 Y93.186 E.03621
G1 X155.555 Y94.82 E.03621
G1 X155.733 Y95.618 E.01748
M204 S1000
G1 X155.992 Y95.595 F10800
M204 S500
G1 F1200
G1 X156.177 Y96.423 E.01814
G1 X156.472 Y98.103 E.03646
G1 X156.689 Y99.795 E.03646
G1 X156.847 Y101.921 E.04557
G1 X156.872 Y102.769 E.01813
G1 X156.887 Y104.053 E.02745
G1 X156.828 Y105.758 E.03647
G1 X156.689 Y107.459 E.03648
G1 X156.472 Y109.151 E.03646
G1 X156.177 Y110.833 E.0365
G1 X156.001 Y111.663 E.01814
G1 X155.589 Y113.321 E.03652
G1 X155.102 Y114.956 E.03647
G1 X154.539 Y116.566 E.03646
G1 X153.902 Y118.149 E.03648
G1 X153.193 Y119.7 E.03645
G1 X152.412 Y121.217 E.03647
G1 X151.562 Y122.696 E.03646
G1 X150.644 Y124.134 E.03647
G1 X149.661 Y125.528 E.03646
G1 X148.612 Y126.877 E.03653
G1 X148.069 Y127.528 E.01812
G1 X146.929 Y128.801 E.03653
G1 X145.733 Y130.017 E.03646
G1 X144.482 Y131.177 E.03647
G1 X143.179 Y132.278 E.03647
G1 X141.826 Y133.317 E.03647
G1 X140.427 Y134.293 E.03646
G1 X138.981 Y135.203 E.03652
G1 X138.248 Y135.63 E.01813
G1 X136.743 Y136.438 E.03651
G1 X135.204 Y137.175 E.03648
G1 X133.633 Y137.839 E.03646
G1 X132.033 Y138.43 E.03646
G1 X130.404 Y138.946 E.03653
G1 X129.587 Y139.175 E.01814
G1 X127.927 Y139.577 E.03651
G1 X126.252 Y139.901 E.03647
G1 X124.564 Y140.147 E.03646
G1 X122.866 Y140.315 E.03647
G1 X121.163 Y140.404 E.03645
G1 X119.457 Y140.414 E.03647
G1 X117.752 Y140.345 E.03648
G1 X116.053 Y140.197 E.03646
G1 X114.362 Y139.97 E.03647
G1 X112.683 Y139.665 E.03648
G1 X111.021 Y139.283 E.03645
G1 X109.376 Y138.823 E.03651
G1 X108.567 Y138.566 E.01814
G1 X106.958 Y137.994 E.0365
G1 X105.379 Y137.348 E.03647
G1 X103.831 Y136.629 E.03649
G1 X102.319 Y135.84 E.03646
G1 X100.845 Y134.981 E.03647
G1 X99.412 Y134.055 E.03647
G1 X98.024 Y133.063 E.03647
G1 X96.683 Y132.009 E.03646
G1 X95.393 Y130.893 E.03646
G1 X94.154 Y129.717 E.03652
G1 X93.559 Y129.112 E.01814
G1 X92.405 Y127.852 E.03652
G1 X91.312 Y126.543 E.03645
G1 X90.28 Y125.184 E.03648
G1 X89.313 Y123.779 E.03646
G1 X88.412 Y122.33 E.03647
G1 X87.579 Y120.841 E.03647
G1 X86.815 Y119.313 E.03652
G1 X86.462 Y118.542 E.01813
G1 X85.806 Y116.965 E.03651
G1 X85.225 Y115.361 E.03647
G1 X84.719 Y113.732 E.03646
G1 X84.288 Y112.081 E.03647
G1 X83.935 Y110.412 E.03647
G1 X83.659 Y108.729 E.03646
G1 X83.462 Y107.034 E.03648
G1 X83.343 Y105.33 E.03651
G1 X83.313 Y104.473 E.01833
G1 X83.313 Y102.783 E.03613
G1 X83.393 Y101.07 E.03666
G1 X83.551 Y99.371 E.03647
G1 X83.787 Y97.682 E.03646
G1 X84.102 Y96.005 E.03647
G1 X84.494 Y94.345 E.03646
G1 X84.962 Y92.704 E.03648
G1 X85.506 Y91.087 E.03647
G1 X86.125 Y89.497 E.03647
G1 X86.816 Y87.938 E.03645
G1 X87.579 Y86.412 E.03647
G1 X88.412 Y84.923 E.03647
G1 X89.31 Y83.48 E.03633
G1 X89.787 Y82.768 E.01832
G1 X90.788 Y81.384 E.03651
G1 X91.851 Y80.049 E.03648
G1 X92.974 Y78.766 E.03645
G1 X94.156 Y77.535 E.03648
G1 X95.393 Y76.361 E.03646
G1 X96.683 Y75.245 E.03646
G1 X98.024 Y74.19 E.03647
G1 X99.412 Y73.199 E.03646
G1 X100.845 Y72.272 E.03648
G1 X102.327 Y71.41 E.03665
G1 X103.834 Y70.623 E.03634
G1 X104.599 Y70.257 E.01813
G1 X106.164 Y69.574 E.0365
G1 X107.758 Y68.965 E.03648
G1 X109.386 Y68.427 E.03665
G1 X111.023 Y67.97 E.03633
G1 X111.848 Y67.77 E.01815
G1 X113.521 Y67.426 E.03651
G1 X115.206 Y67.16 E.03646
G1 X116.902 Y66.973 E.03647
G1 X118.604 Y66.864 E.03646
G1 X120.319 Y66.835 E.03667
G1 X122.017 Y66.884 E.03631
G1 X122.864 Y66.938 E.01814
G1 X124.564 Y67.106 E.03652
G1 X126.252 Y67.353 E.03647
G1 X127.927 Y67.677 E.03647
G1 X129.585 Y68.078 E.03646
G1 X131.222 Y68.556 E.03645
G1 X132.836 Y69.11 E.03648
G1 X134.422 Y69.738 E.03646
G1 X135.978 Y70.438 E.03647
G1 X137.499 Y71.21 E.03646
G1 X138.983 Y72.051 E.03646
G1 X140.427 Y72.961 E.03649
G1 X141.828 Y73.937 E.0365
G1 X142.507 Y74.446 E.01814
G1 X143.83 Y75.512 E.03632
G1 X145.115 Y76.649 E.03668
G1 X146.338 Y77.837 E.03645
G1 X147.505 Y79.082 E.03648
G1 X148.614 Y80.378 E.03646
G1 X149.661 Y81.725 E.03647
G1 X150.649 Y83.127 E.03666
G1 X151.563 Y84.559 E.03631
G1 X151.994 Y85.29 E.01814
G1 X152.807 Y86.782 E.03632
G1 X153.556 Y88.325 E.03666
G1 X154.23 Y89.892 E.03646
G1 X154.83 Y91.489 E.03647
G1 X155.355 Y93.112 E.03646
G1 X155.804 Y94.758 E.03647
G1 X155.984 Y95.558 E.01753
M204 S1000
G1 X156.242 Y95.536 F10800
M204 S500
;TYPE:External perimeter
G1 F1200
G1 X156.429 Y96.372 E.01831
G1 X156.727 Y98.064 E.03673
G1 X156.945 Y99.768 E.03672
G1 X157.104 Y101.909 E.04589
G1 X157.129 Y102.766 E.01833
G1 X157.144 Y104.056 E.02758
G1 X157.084 Y105.773 E.03673
G1 X156.945 Y107.485 E.03672
G1 X156.727 Y109.189 E.03672
G1 X156.429 Y110.882 E.03675
G1 X156.252 Y111.721 E.01833
G1 X155.837 Y113.389 E.03674
G1 X155.346 Y115.035 E.03672
G1 X154.78 Y116.657 E.03672
G1 X154.138 Y118.25 E.03671
G1 X153.424 Y119.813 E.03673
G1 X152.638 Y121.34 E.03671
G1 X151.782 Y122.829 E.03671
G1 X150.858 Y124.278 E.03674
G1 X149.867 Y125.681 E.03672
G1 X148.812 Y127.038 E.03674
G1 X148.263 Y127.696 E.01832
G1 X147.117 Y128.977 E.03674
G1 X145.912 Y130.202 E.03673
G1 X144.653 Y131.37 E.03671
G1 X143.34 Y132.478 E.03672
G1 X141.978 Y133.525 E.03672
G1 X140.569 Y134.507 E.03671
G1 X139.114 Y135.423 E.03675
G1 X138.374 Y135.855 E.01832
G1 X136.859 Y136.668 E.03675
G1 X135.31 Y137.409 E.03671
G1 X133.728 Y138.078 E.03672
G1 X132.116 Y138.673 E.03673
G1 X130.478 Y139.193 E.03674
G1 X129.652 Y139.423 E.01833
G1 X127.982 Y139.828 E.03673
G1 X126.295 Y140.155 E.03673
G1 X124.595 Y140.403 E.03672
G1 X122.886 Y140.572 E.03671
G1 X121.17 Y140.661 E.03673
G1 X119.452 Y140.671 E.03672
G1 X117.736 Y140.601 E.03671
G1 X116.024 Y140.452 E.03673
G1 X114.322 Y140.224 E.03671
G1 X112.632 Y139.917 E.03672
G1 X110.957 Y139.532 E.03674
G1 X109.302 Y139.069 E.03674
G1 X108.485 Y138.81 E.01832
G1 X106.866 Y138.234 E.03673
G1 X105.276 Y137.583 E.03673
G1 X103.718 Y136.86 E.03672
G1 X102.195 Y136.065 E.03672
G1 X100.71 Y135.2 E.03674
G1 X99.268 Y134.268 E.0367
G1 X97.87 Y133.269 E.03673
G1 X96.52 Y132.207 E.03672
G1 X95.22 Y131.083 E.03674
G1 X93.974 Y129.9 E.03673
G1 X93.373 Y129.289 E.01832
G1 X92.211 Y128.022 E.03675
G1 X91.111 Y126.703 E.03671
G1 X90.072 Y125.335 E.03672
G1 X89.098 Y123.92 E.03672
G1 X88.191 Y122.461 E.03672
G1 X87.352 Y120.962 E.03672
G1 X86.583 Y119.424 E.03676
G1 X86.227 Y118.645 E.01831
G1 X85.567 Y117.058 E.03674
G1 X84.981 Y115.443 E.03672
G1 X84.471 Y113.802 E.03673
G1 X84.038 Y112.14 E.03671
G1 X83.682 Y110.46 E.03671
G1 X83.404 Y108.764 E.03674
G1 X83.206 Y107.058 E.03671
G1 X83.086 Y105.343 E.03675
G1 X83.056 Y104.478 E.0185
G1 X83.056 Y102.777 E.03636
G1 X83.136 Y101.052 E.03691
G1 X83.295 Y99.341 E.03673
G1 X83.533 Y97.64 E.03672
G1 X83.85 Y95.952 E.03671
G1 X84.245 Y94.28 E.03672
G1 X84.717 Y92.628 E.03673
G1 X85.265 Y91 E.03672
G1 X85.887 Y89.399 E.03672
G1 X86.584 Y87.828 E.03674
G1 X87.352 Y86.292 E.03671
G1 X88.191 Y84.793 E.03672
G1 X89.094 Y83.341 E.03655
G1 X89.576 Y82.621 E.01852
G1 X90.583 Y81.229 E.03673
G1 X91.653 Y79.885 E.03672
G1 X92.784 Y78.592 E.03672
G1 X93.974 Y77.353 E.03672
G1 X95.22 Y76.17 E.03673
G1 X96.52 Y75.046 E.03674
G1 X97.87 Y73.984 E.03672
G1 X99.268 Y72.986 E.03672
G1 X100.71 Y72.053 E.03671
G1 X102.203 Y71.184 E.03693
G1 X103.719 Y70.393 E.03655
G1 X104.492 Y70.023 E.01832
G1 X106.067 Y69.336 E.03673
G1 X107.672 Y68.722 E.03673
G1 X109.312 Y68.181 E.03692
G1 X110.958 Y67.721 E.03653
G1 X111.791 Y67.52 E.01832
G1 X113.475 Y67.173 E.03675
G1 X115.172 Y66.906 E.03672
G1 X116.879 Y66.717 E.03671
G1 X118.594 Y66.607 E.03674
G1 X120.32 Y66.578 E.0369
G1 X122.029 Y66.627 E.03655
G1 X122.885 Y66.682 E.01834
G1 X124.595 Y66.851 E.03673
G1 X126.295 Y67.099 E.03672
G1 X127.982 Y67.426 E.03673
G1 X129.651 Y67.83 E.03671
G1 X131.3 Y68.311 E.03672
G1 X132.925 Y68.869 E.03673
G1 X134.523 Y69.501 E.03673
G1 X136.089 Y70.206 E.03671
G1 X137.621 Y70.983 E.03672
G1 X139.115 Y71.831 E.03672
G1 X140.569 Y72.746 E.03672
G1 X141.979 Y73.729 E.03674
